icons/GreyStone/apps/scalable/1password.svg

<svg clip-rule="evenodd" fill-rule="evenodd" stroke-linejoin="round" stroke-miterlimit="2" viewBox="0 0 48 48" xmlns="http://www.w3.org/2000/svg">
 <linearGradient id="a" x2="1" gradientTransform="matrix(0 -45.528 45.528 0 24 46.764)" gradientUnits="userSpaceOnUse">
  <stop stop-color="#dadada" offset="0"/>
  <stop stop-color="#fff" offset="1"/>
 </linearGradient>
 <circle cx="24" cy="24" r="22.764" fill="url(#a)"/>
 <g fill-rule="nonzero">
  <path d="m21.724 13.756c-.631 0-1.139.508-1.139 1.138v4.613s1.234 1.085 1.234 1.816c0 .732-1.234 1.817-1.234 1.817v9.966c0 .63.508 1.138 1.139 1.138h4.552c.631 0 1.139-.508 1.139-1.138v-4.595l-.012-.016s-1.286-1.131-1.287-1.894c0-.764 1.287-1.896 1.287-1.896l.012-.016v-9.795c0-.63-.508-1.138-1.139-1.138z" fill="#2d3439"/>
  <path d="m24 5.789c-10.031 0-18.211 8.18-18.211 18.211s8.18 18.211 18.211 18.211 18.211-8.18 18.211-18.211-8.18-18.211-18.211-18.211zm0 4.553c7.57 0 13.658 6.088 13.658 13.658s-6.088 13.658-13.658 13.658-13.658-6.088-13.658-13.658 6.088-13.658 13.658-13.658z" fill="#0064e2"/>
 </g>
</svg>

<?xml version="1.0" encoding="UTF-8" standalone="no"?>
<svg
   width="64"
   height="64"
   version="1.1"
   id="svg73"
   sodipodi:docname="audacious.svg"
   inkscape:version="1.4.2 (ebf0e940d0, 2025-05-08)"
   xmlns:inkscape="http://www.inkscape.org/namespaces/inkscape"
   xmlns:sodipodi="http://sodipodi.sourceforge.net/DTD/sodipodi-0.dtd"
   xmlns="http://www.w3.org/2000/svg"
   xmlns:svg="http://www.w3.org/2000/svg"
   xmlns:rdf="http://www.w3.org/1999/02/22-rdf-syntax-ns#"
   xmlns:cc="http://creativecommons.org/ns#"
   xmlns:dc="http://purl.org/dc/elements/1.1/">
  <metadata
     id="metadata77">
    <rdf:RDF>
      <cc:Work
         rdf:about="">
        <dc:format>image/svg+xml</dc:format>
        <dc:type
           rdf:resource="http://purl.org/dc/dcmitype/StillImage" />
      </cc:Work>
    </rdf:RDF>
  </metadata>
  <sodipodi:namedview
     pagecolor="#f5f7fa"
     bordercolor="#666666"
     borderopacity="1"
     objecttolerance="10"
     gridtolerance="10"
     guidetolerance="10"
     inkscape:pageopacity="0"
     inkscape:pageshadow="2"
     inkscape:window-width="1377"
     inkscape:window-height="886"
     id="namedview75"
     showgrid="false"
     inkscape:zoom="6.2890624"
     inkscape:cx="47.622361"
     inkscape:cy="45.396274"
     inkscape:window-x="28"
     inkscape:window-y="57"
     inkscape:window-maximized="0"
     inkscape:current-layer="g877"
     inkscape:document-rotation="0"
     inkscape:pagecheckerboard="0"
     inkscape:showpageshadow="2"
     inkscape:deskcolor="#d1d1d1" />
  <defs
     id="defs29" />
  <circle
     cx="32.516094"
     cy="31.877844"
     r="0"
     fill="url(#b)"
     stroke-width="1.5715"
     id="circle41"
     style="fill:url(#b)" />
  <g
     aria-label="GZ"
     transform="matrix(1.2212657,0,0,0.81882264,0.4960938,-0.1661539)"
     id="text93"
     style="font-weight:bold;font-size:11.5263px;line-height:1.25;font-family:sans-serif;-inkscape-font-specification:'sans-serif Bold';fill:#f2f2f2;stroke-width:0.288159" />
  <g
     id="g877"
     transform="matrix(1.1,0,0,1.1,-3.1845928,-3.2065454)">
    <rect
       x="8.3496294"
       y="8.369586"
       width="47.272728"
       height="47.272728"
       rx="9.8825235"
       ry="9.6485243"
       fill="url(#linearGradient862)"
       stroke-width="3.0541"
       id="rect35-7-3"
       style="fill:#414141;fill-opacity:1;stroke:#dfdfdf;stroke-width:2.04545;stroke-dasharray:none;stroke-opacity:1" />
    <g
       fill-rule="nonzero"
       id="g3"
       transform="matrix(0.85118801,0,0,0.85118801,11.557482,11.577438)"
       style="fill:#dfdfdf;fill-opacity:1;stroke:none;stroke-width:0.566836;stroke-dasharray:none;stroke-opacity:0.6">
      <path
         d="m 21.724,13.756 c -0.631,0 -1.139,0.508 -1.139,1.138 v 4.613 c 0,0 1.234,1.085 1.234,1.816 0,0.732 -1.234,1.817 -1.234,1.817 v 9.966 c 0,0.63 0.508,1.138 1.139,1.138 h 4.552 c 0.631,0 1.139,-0.508 1.139,-1.138 v -4.595 l -0.012,-0.016 c 0,0 -1.286,-1.131 -1.287,-1.894 0,-0.764 1.287,-1.896 1.287,-1.896 l 0.012,-0.016 v -9.795 c 0,-0.63 -0.508,-1.138 -1.139,-1.138 z"
         fill="#2d3439"
         id="path2-3"
         style="fill:#dfdfdf;fill-opacity:1;stroke:none;stroke-width:0.566836;stroke-dasharray:none;stroke-opacity:0.6" />
      <path
         d="M 24,5.789 C 13.969,5.789 5.789,13.969 5.789,24 5.789,34.031 13.969,42.211 24,42.211 34.031,42.211 42.211,34.031 42.211,24 42.211,13.969 34.031,5.789 24,5.789 Z m 0,4.553 C 31.57,10.342 37.658,16.43 37.658,24 37.658,31.57 31.57,37.658 24,37.658 16.43,37.658 10.342,31.57 10.342,24 10.342,16.43 16.43,10.342 24,10.342 Z"
         fill="#0064e2"
         id="path3-3"
         style="fill:#dfdfdf;fill-opacity:1;stroke:none;stroke-width:0.566836;stroke-dasharray:none;stroke-opacity:0.6" />
    </g>
  </g>
</svg>
